newicons/emoji_identification_card.svg

<?xml version="1.0" encoding="UTF-8" standalone="no"?>
<svg
   version="1.2"
   viewBox="0 0 48 48"
   id="svg9"
   xmlns="http://www.w3.org/2000/svg"
   xmlns:svg="http://www.w3.org/2000/svg">
  <defs
     id="defs1" />
  <path
     d="m 23.089322,32.343696 2.808419,-4.248936 0.748952,3.70259 1.891476,-2.469724 0.459516,2.046159 c 2.860219,-1.57428 5.689347,0.877989 7.918179,0.06892"
     fill="none"
     stroke="#ffffff"
     stroke-linecap="round"
     stroke-linejoin="round"
     stroke-width="1"
     id="path1" />
  <path
     d="M 18.39814,32.343696 18.292153,30.397143 A 3.1473871,3.1418877 0 0 0 15.184451,27.418485 H 11.646774 A 3.1473871,3.1418877 0 0 0 8.5387738,30.397143 L 8.4327867,32.343636"
     fill="none"
     stroke="#ffffff"
     stroke-linecap="round"
     stroke-linejoin="round"
     stroke-width="1"
     id="path2" />
  <path
     d="M 8.4330255,15.66107 H 18.39814"
     fill="none"
     stroke="#ffffff"
     stroke-linecap="round"
     stroke-linejoin="round"
     stroke-width="1"
     id="path3" />
  <path
     d="M 23.320512,15.66107 H 39.535285"
     fill="none"
     stroke="#ffffff"
     stroke-linecap="round"
     stroke-linejoin="round"
     stroke-width="1"
     id="path4" />
  <path
     d="M 23.363898,20.161106 H 34.806685"
     fill="none"
     stroke="#ffffff"
     stroke-linecap="round"
     stroke-linejoin="round"
     stroke-width="1"
     id="path5" />
  <path
     d="M 23.363898,22.54296 H 34.806685"
     fill="none"
     stroke="#ffffff"
     stroke-linecap="round"
     stroke-linejoin="round"
     stroke-width="1"
     id="path6" />
  <path
     d="M 23.363898,24.924754 H 34.806685"
     fill="none"
     stroke="#ffffff"
     stroke-linecap="round"
     stroke-linejoin="round"
     stroke-width="1"
     id="path7" />
  <path
     d="m 11.665512,23.285361 a 1.7903226,1.7871944 0 1 0 3.580645,0 1.7903226,1.7871944 0 1 0 -3.580645,0"
     fill="none"
     stroke="#ffffff"
     stroke-linecap="round"
     stroke-linejoin="round"
     stroke-width="1"
     id="path8" />
  <path
     d="M 7.5935432,12.681102 H 40.406455 A 2.0935435,2.0898855 0 0 1 42.5,14.770988 v 18.458024 a 2.0935435,2.0898855 0 0 1 -2.093545,2.089886 H 7.5935432 A 2.0935435,2.0898855 0 0 1 5.4999996,33.229012 V 14.770988 a 2.0935435,2.0898855 0 0 1 2.0935436,-2.089886"
     fill="none"
     stroke="#ffffff"
     stroke-linecap="round"
     stroke-linejoin="round"
     stroke-width="1"
     id="path9" />
</svg>

<?xml version="1.0" encoding="UTF-8"?><svg id="a" xmlns="http://www.w3.org/2000/svg" viewBox="0 0 48 48"><defs><style>.k{fill:none;stroke:#fff;stroke-linecap:round;stroke-linejoin:round;}</style></defs><path id="b" class="k" d="M23.0893,32.3437l2.8084-4.2489.749,3.7026,1.8915-2.4697.4595,2.0462c2.8602-1.5743,5.6893.878,7.9182.0689"/><path id="c" class="k" d="M18.3981,32.3437l-.106-1.9466c-.0862-1.656-1.4467-2.96-3.1077-2.9787h-3.5377c-1.6611.0185-3.0218,1.3226-3.108,2.9787l-.106,1.9465"/><path id="d" class="k" d="M8.433,15.6611h9.9651"/><path id="e" class="k" d="M23.3205,15.6611h16.2148"/><path id="f" class="k" d="M23.3639,20.1611h11.4428"/><path id="g" class="k" d="M23.3639,22.543h11.4428"/><path id="h" class="k" d="M23.3639,24.9248h11.4428"/><path id="i" class="k" d="M11.6655,23.2854c-.0005.987.8006,1.7876,1.7894,1.7881.9888.0005,1.7907-.7992,1.7912-1.7863v-.0018c.0005-.987-.8006-1.7876-1.7894-1.7881-.9888-.0005-1.7907.7992-1.7912,1.7863v.0018"/><path id="j" class="k" d="M7.5935,12.6811h32.8129c1.1562,0,2.0935.9357,2.0935,2.0899h0v18.458c0,1.1542-.9373,2.0899-2.0935,2.0899H7.5935c-1.1562,0-2.0935-.9357-2.0935-2.0899h0V14.771c0-1.1542.9373-2.0899,2.0935-2.0899h0"/></svg>
